proprietary/assets/icons/navigatie/route-met-locatiemarker.svg

<svg height="64" viewBox="0 0 64 64" width="64" xmlns="http://www.w3.org/2000/svg"><path d="m0 0h64v64h-64z" fill="none"/><path d="m15.2541 48c-3.4243 0-6.21-2.7856-6.21-6.21 0-2.2349 1.2085-4.3062 3.1538-5.4058l15.5779-8.8301c2.6055-1.4721 4.2242-4.246 4.2242-7.2387 0-4.5849-3.7305-8.3154-8.3154-8.3154h-7.9892c-.8245-2.3289-3.0399-4-5.6512-4-3.3137 0-6 2.6863-6 6s2.6863 6 6 6c2.6113 0 4.8267-1.6711 5.6512-4h7.9892c2.3794 0 4.3154 1.936 4.3154 4.3154 0 1.5532-.8398 2.9922-2.1924 3.7563l-15.5779 8.8301c-3.1988 1.8082-5.1856 5.2139-5.1856 8.8882 0 5.6299 4.5801 10.21 10.21 10.21h27.4699c-.5651-1.4412-1.181-2.7679-1.8296-4zm-5.2541-31c-1.6569 0-3-1.3431-3-3s1.3431-3 3-3 3 1.3431 3 3-1.3431 3-3 3z"/><path d="m48 20c-6.841 0-12 5.1619-12 12.0073 0 3.9836 1.9221 6.9601 4.1479 10.4067 2.1625 3.3476 4.6132 7.3924 6.1392 13.2624.203.7793.9072 1.3236 1.7129 1.3236s1.5099-.5443 1.7128-1.3237c1.5261-5.87 3.9767-9.9148 6.1392-13.2624 2.2259-3.4466 4.148-6.4231 4.148-10.4066 0-6.8454-5.1589-12.0073-12-12.0073zm0 19.2036c-3.9784 0-7.2036-3.2252-7.2036-7.2036 0-3.9785 3.2252-7.2036 7.2036-7.2036 3.9785 0 7.2036 3.2251 7.2036 7.2036s-3.2251 7.2036-7.2036 7.2036z"/><circle cx="48" cy="32" r="4"/></svg>

<?xml version="1.0" encoding="utf-8"?>
<!-- Generator: Adobe Illustrator 19.1.0, SVG Export Plug-In . SVG Version: 6.00 Build 0)  -->
<svg version="1.2" baseProfile="tiny" xmlns="http://www.w3.org/2000/svg" xmlns:xlink="http://www.w3.org/1999/xlink" x="0px"
	 y="0px" width="64px" height="64px" viewBox="0 0 64 64" xml:space="preserve">
<g id="Box">
	<rect fill="none" width="64" height="64"/>
</g>
<g id="Icon">
	<g>
		<path d="M15.2541,48c-3.4243,0-6.21-2.7856-6.21-6.21c0-2.2349,1.2085-4.3062,3.1538-5.4058l15.5779-8.8301
			C30.3813,26.082,32,23.3081,32,20.3154C32,15.7305,28.2695,12,23.6846,12h-7.9892c-0.8245-2.3289-3.0399-4-5.6512-4
			c-3.3137,0-6,2.6863-6,6s2.6863,6,6,6c2.6113,0,4.8267-1.6711,5.6512-4h7.9892C26.064,16,28,17.936,28,20.3154
			c0,1.5532-0.8398,2.9922-2.1924,3.7563l-15.5779,8.8301C7.0309,34.71,5.0441,38.1157,5.0441,41.79
			c0,5.6299,4.5801,10.21,10.21,10.21H42.724c-0.5651-1.4412-1.181-2.7679-1.8296-4H15.2541z M10,17c-1.6569,0-3-1.3431-3-3
			s1.3431-3,3-3s3,1.3431,3,3S11.6569,17,10,17z"/>
		<path d="M48,20c-6.841,0-12,5.1619-12,12.0073c0,3.9836,1.9221,6.9601,4.1479,10.4067c2.1625,3.3476,4.6132,7.3924,6.1392,13.2624
			C46.4901,56.4557,47.1943,57,48,57c0.8057,0,1.5099-0.5443,1.7128-1.3237c1.5261-5.87,3.9767-9.9148,6.1392-13.2624
			C58.0779,38.9673,60,35.9908,60,32.0073C60,25.1619,54.8411,20,48,20z M48,39.2036c-3.9784,0-7.2036-3.2252-7.2036-7.2036
			c0-3.9785,3.2252-7.2036,7.2036-7.2036c3.9785,0,7.2036,3.2251,7.2036,7.2036C55.2036,35.9785,51.9785,39.2036,48,39.2036z"/>
		<circle cx="48" cy="32" r="4"/>
	</g>
</g>
</svg>
